public/brand-amazon.svg

<svg width="300" height="91" viewBox="0 0 300 91" fill="none" xmlns="http://www.w3.org/2000/svg">
  <g clip-path="url(#clip0_304_27)">
    <path fill-rule="evenodd" clip-rule="evenodd"
      d="M186.114 70.6174C168.681 83.4522 143.412 90.3 121.656 90.3C91.1505 90.3 63.6878 79.0304 42.9113 60.287C41.2789 58.8131 42.7415 56.8044 44.7003 57.9522C67.1223 70.9826 94.8462 78.8217 123.484 78.8217C142.798 78.8217 164.045 74.8304 183.581 66.5478C186.532 65.2957 189 68.4783 186.114 70.6174Z"
      fill="#2563EB" />
    <path fill-rule="evenodd" clip-rule="evenodd"
      d="M193.362 62.3348C191.142 59.4913 178.631 60.9913 173.016 61.6565C171.305 61.8652 171.044 60.3783 172.585 59.3087C182.549 52.3044 198.899 54.3261 200.805 56.6739C202.712 59.0348 200.309 75.4044 190.946 83.2174C189.509 84.4174 188.138 83.7783 188.778 82.187C190.881 76.9435 195.595 65.1913 193.362 62.3348Z"
      fill="#2563EB" />
    <path fill-rule="evenodd" clip-rule="evenodd"
      d="M173.408 9.86093V3.05224C173.408 2.02181 174.191 1.33051 175.132 1.33051H205.65C206.63 1.33051 207.413 2.03485 207.413 3.05224V8.88267C207.4 9.86093 206.577 11.1392 205.115 13.1609L189.3 35.7131C195.177 35.5696 201.38 36.4435 206.708 39.4435C207.909 40.1218 208.236 41.1131 208.327 42.0913V49.3566C208.327 50.3479 207.23 51.5087 206.081 50.9087C196.692 45.9913 184.221 45.4566 173.839 50.9609C172.781 51.5348 171.671 50.387 171.671 49.3957V42.4957C171.671 41.387 171.684 39.4957 172.794 37.8131L191.116 11.5696H175.171C174.191 11.5696 173.408 10.8783 173.408 9.86093Z"
      fill="#2563EB" />
    <path fill-rule="evenodd" clip-rule="evenodd"
      d="M62.0816 52.3435H52.7967C51.9088 52.2783 51.2036 51.6131 51.1383 50.7652V3.16964C51.1383 2.21747 51.9349 1.46094 52.9273 1.46094H61.5853C62.4864 1.50004 63.2046 2.19137 63.2699 3.05224V9.27398H63.4397C65.6989 3.26093 69.943 0.456589 75.6627 0.456589C81.4739 0.456589 85.1042 3.26093 87.716 9.27398C89.9621 3.26093 95.0681 0.456589 100.54 0.456589C104.431 0.456589 108.688 2.06094 111.287 5.66093C114.225 9.66528 113.625 15.4827 113.625 20.5827L113.612 50.6218C113.612 51.5739 112.815 52.3435 111.823 52.3435H102.551C101.624 52.2783 100.879 51.5348 100.879 50.6218V25.3957C100.879 23.387 101.062 18.3783 100.618 16.474C99.926 13.2783 97.8496 12.3783 95.1595 12.3783C92.9134 12.3783 90.5628 13.8783 89.6095 16.2783C88.6562 18.6783 88.7476 22.6957 88.7476 25.3957V50.6218C88.7476 51.5739 87.9511 52.3435 86.9586 52.3435H77.6868C76.7466 52.2783 76.0153 51.5348 76.0153 50.6218L76.0023 25.3957C76.0023 20.087 76.8772 12.274 70.2825 12.274C63.6094 12.274 63.8706 19.8914 63.8706 25.3957V50.6218C63.8706 51.5739 63.074 52.3435 62.0816 52.3435Z"
      fill="#2563EB" />
    <path fill-rule="evenodd" clip-rule="evenodd"
      d="M233.687 0.456589C247.464 0.456589 254.921 12.274 254.921 27.3001C254.921 41.8174 246.681 53.3348 233.687 53.3348C220.158 53.3348 212.793 41.5174 212.793 26.7914C212.793 11.974 220.25 0.456589 233.687 0.456589ZM233.766 10.174C226.923 10.174 226.492 19.487 226.492 25.2914C226.492 31.1087 226.401 43.5261 233.687 43.5261C240.883 43.5261 241.222 33.5087 241.222 27.4044C241.222 23.387 241.053 18.587 239.838 14.7783C238.793 11.4653 236.717 10.174 233.766 10.174Z"
      fill="#2563EB" />
    <path fill-rule="evenodd" clip-rule="evenodd"
      d="M272.785 52.3435H263.54C262.613 52.2783 261.868 51.5348 261.868 50.6218L261.855 3.01311C261.934 2.1392 262.704 1.46094 263.644 1.46094H272.25C273.06 1.50004 273.726 2.0479 273.909 2.79137V10.0696H274.078C276.677 3.56094 280.32 0.456589 286.732 0.456589C290.898 0.456589 294.959 1.95659 297.571 6.06528C300 9.87397 300 16.2783 300 20.8827V50.8435C299.896 51.6783 299.125 52.3435 298.211 52.3435H288.9C288.051 52.2783 287.346 51.6522 287.255 50.8435V24.9914C287.255 19.787 287.855 12.1696 281.443 12.1696C279.184 12.1696 277.108 13.6827 276.076 15.9783C274.77 18.887 274.601 21.7827 274.601 24.9914V50.6218C274.588 51.5739 273.778 52.3435 272.785 52.3435Z"
      fill="#2563EB" />
    <path fill-rule="evenodd" clip-rule="evenodd"
      d="M149.079 29.6087C149.079 33.2218 149.171 36.2348 147.343 39.4435C145.867 42.0522 143.516 43.6566 140.918 43.6566C137.353 43.6566 135.263 40.9435 135.263 36.9392C135.263 29.0348 142.354 27.6 149.079 27.6V29.6087ZM158.443 52.2131C157.829 52.7609 156.941 52.8 156.249 52.4348C153.167 49.8783 152.605 48.6913 150.921 46.2522C145.828 51.4435 142.21 52.9957 135.616 52.9957C127.793 52.9957 121.721 48.1826 121.721 38.5435C121.721 31.0174 125.795 25.8914 131.62 23.387C136.66 21.1696 143.699 20.7783 149.079 20.1653V18.9653C149.079 16.7609 149.249 14.1522 147.943 12.2479C146.82 10.5392 144.652 9.83484 142.733 9.83484C139.194 9.83484 136.047 11.6479 135.276 15.4044C135.119 16.2392 134.506 17.0609 133.657 17.1001L124.659 16.1348C123.902 15.9653 123.053 15.3522 123.275 14.1914C125.338 3.28702 135.211 6.10352e-05 144.039 6.10352e-05C148.557 6.10352e-05 154.46 1.20006 158.025 4.61745C162.543 8.83049 162.112 14.4522 162.112 20.5696V35.0218C162.112 39.3653 163.914 41.2696 165.612 43.6174C166.199 44.4522 166.33 45.4565 165.573 46.0826C163.679 47.6609 160.31 50.5957 158.456 52.2392L158.443 52.2131Z"
      fill="#2563EB" />
    <path fill-rule="evenodd" clip-rule="evenodd"
      d="M27.3582 29.6087C27.3582 33.2217 27.4496 36.2348 25.6214 39.4435C24.1457 42.0522 21.8082 43.6565 19.1964 43.6565C15.6314 43.6565 13.555 40.9434 13.555 36.9391C13.555 29.0348 20.646 27.6 27.3582 27.6V29.6087ZM36.7214 52.213C36.1076 52.7608 35.2196 52.8 34.5275 52.4347C31.4456 49.8782 30.8971 48.6913 29.1995 46.2521C24.1066 51.4434 20.5023 52.9956 13.8946 52.9956C6.08539 52.9956 0 48.1826 0 38.5435C0 31.0174 4.08741 25.8913 9.89857 23.3869C14.9393 21.1695 21.978 20.7783 27.3582 20.1652V18.9652C27.3582 16.7609 27.528 14.1522 26.2351 12.2478C25.099 10.5391 22.9313 9.83478 21.0247 9.83478C17.4857 9.83478 14.3255 11.6478 13.555 15.4043C13.3983 16.2391 12.7846 17.0609 11.9488 17.1L2.93823 16.1348C2.18082 15.9652 1.34505 15.3522 1.554 14.1913C3.63035 3.28696 13.4897 0 22.3175 0C26.8358 0 32.7384 1.2 36.3035 4.61739C40.8218 8.83043 40.3909 14.4522 40.3909 20.5696V35.0217C40.3909 39.3652 42.193 41.2695 43.8907 43.6174C44.4914 44.4521 44.6219 45.4565 43.8645 46.0826C41.971 47.6608 38.6018 50.5956 36.7475 52.2391L36.7214 52.213Z"
      fill="#2563EB" />
  </g>
  <defs>
    <clipPath id="clip0_304_27">
      <rect width="300" height="90.3" fill="white" />
    </clipPath>
  </defs>
</svg>

<svg width="300" height="91" fill="none" xmlns="http://www.w3.org/2000/svg"><g clip-path="url(#prefix__clip0_304_27)" fill-rule="evenodd" clip-rule="evenodd" fill="#2563EB"><path d="M186.114 70.617C168.681 83.452 143.412 90.3 121.656 90.3c-30.506 0-57.968-11.27-78.745-30.013-1.632-1.474-.17-3.483 1.79-2.335 22.421 13.03 50.145 20.87 78.783 20.87 19.314 0 40.561-3.992 60.097-12.274 2.951-1.252 5.419 1.93 2.533 4.07z"/><path d="M193.362 62.335c-2.22-2.844-14.731-1.344-20.346-.678-1.711.208-1.972-1.279-.431-2.348 9.964-7.005 26.314-4.983 28.22-2.635 1.907 2.36-.496 18.73-9.859 26.543-1.437 1.2-2.808.561-2.168-1.03 2.103-5.243 6.817-16.996 4.584-19.852zM173.408 9.86V3.053c0-1.03.783-1.721 1.724-1.721h30.518c.98 0 1.763.704 1.763 1.721v5.83c-.013.979-.836 2.257-2.298 4.279L189.3 35.713c5.877-.143 12.08.73 17.408 3.73 1.201.679 1.528 1.67 1.619 2.648v7.266c0 .99-1.097 2.152-2.246 1.552-9.389-4.918-21.86-5.452-32.242.052-1.058.574-2.168-.574-2.168-1.565v-6.9c0-1.109.013-3 1.123-4.683l18.322-26.243h-15.945c-.98 0-1.763-.692-1.763-1.71zM62.082 52.343h-9.285c-.888-.065-1.593-.73-1.659-1.578V3.17c0-.953.797-1.71 1.79-1.71h8.657c.901.04 1.62.731 1.685 1.592v6.222h.17C65.699 3.261 69.943.457 75.663.457c5.81 0 9.441 2.804 12.053 8.817C89.962 3.261 95.068.457 100.54.457c3.891 0 8.148 1.604 10.747 5.204 2.938 4.004 2.338 9.822 2.338 14.922l-.013 30.039c0 .952-.797 1.721-1.789 1.721h-9.272c-.927-.065-1.672-.808-1.672-1.721V25.396c0-2.009.183-7.018-.261-8.922-.692-3.196-2.768-4.096-5.459-4.096-2.246 0-4.596 1.5-5.55 3.9-.953 2.4-.861 6.418-.861 9.118v25.226c0 .952-.797 1.721-1.79 1.721h-9.271c-.94-.065-1.672-.808-1.672-1.721l-.013-25.226c0-5.309.875-13.122-5.72-13.122-6.673 0-6.411 7.617-6.411 13.122v25.226c0 .952-.797 1.721-1.79 1.721zM233.687.457c13.777 0 21.234 11.817 21.234 26.843 0 14.517-8.24 26.035-21.234 26.035-13.529 0-20.894-11.818-20.894-26.544 0-14.817 7.457-26.334 20.894-26.334zm.079 9.717c-6.843 0-7.274 9.313-7.274 15.117 0 5.818-.091 18.235 7.195 18.235 7.196 0 7.535-10.017 7.535-16.122 0-4.017-.169-8.817-1.384-12.626-1.045-3.313-3.121-4.604-6.072-4.604zM272.785 52.343h-9.245c-.927-.065-1.672-.808-1.672-1.721l-.013-47.609c.079-.874.849-1.552 1.789-1.552h8.606c.81.039 1.476.587 1.659 1.33v7.279h.169c2.599-6.51 6.242-9.613 12.654-9.613 4.166 0 8.227 1.5 10.839 5.608C300 9.874 300 16.278 300 20.883v29.96c-.104.835-.875 1.5-1.789 1.5H288.9c-.849-.065-1.554-.69-1.645-1.5V24.991c0-5.204.6-12.821-5.812-12.821-2.259 0-4.335 1.513-5.367 3.808-1.306 2.909-1.475 5.805-1.475 9.013v25.63c-.013.953-.823 1.722-1.816 1.722zM149.079 29.609c0 3.613.092 6.626-1.736 9.834-1.476 2.61-3.827 4.214-6.425 4.214-3.565 0-5.655-2.713-5.655-6.718 0-7.904 7.091-9.339 13.816-9.339v2.009zm9.364 22.604c-.614.548-1.502.587-2.194.222-3.082-2.557-3.644-3.744-5.328-6.183-5.093 5.191-8.711 6.744-15.305 6.744-7.823 0-13.895-4.813-13.895-14.453 0-7.526 4.074-12.652 9.899-15.156 5.04-2.217 12.079-2.609 17.459-3.222v-1.2c0-2.204.17-4.813-1.136-6.717-1.123-1.709-3.291-2.413-5.21-2.413-3.539 0-6.686 1.813-7.457 5.57-.157.834-.77 1.656-1.619 1.695l-8.998-.965c-.757-.17-1.606-.783-1.384-1.944C125.338 3.287 135.211.001 144.039.001c4.518 0 10.421 1.2 13.986 4.616 4.518 4.213 4.087 9.835 4.087 15.953v14.452c0 4.343 1.802 6.248 3.5 8.595.587.835.718 1.84-.039 2.466-1.894 1.578-5.263 4.513-7.117 6.156l-.013-.026zM27.358 29.609c0 3.613.092 6.626-1.737 9.834-1.475 2.61-3.813 4.214-6.425 4.214-3.565 0-5.641-2.714-5.641-6.718 0-7.904 7.091-9.339 13.803-9.339v2.009zm9.363 22.604c-.613.548-1.501.587-2.193.222-3.082-2.557-3.63-3.744-5.328-6.183-5.093 5.191-8.698 6.744-15.305 6.744C6.085 52.996 0 48.183 0 38.543c0-7.526 4.087-12.652 9.899-15.156 5.04-2.218 12.079-2.609 17.46-3.222v-1.2c0-2.204.169-4.813-1.124-6.717-1.136-1.709-3.304-2.413-5.21-2.413-3.54 0-6.7 1.813-7.47 5.57-.157.834-.77 1.656-1.606 1.695l-9.01-.965c-.758-.17-1.594-.783-1.385-1.944C3.63 3.287 13.49 0 22.318 0c4.518 0 10.42 1.2 13.985 4.617 4.519 4.213 4.088 9.835 4.088 15.953v14.452c0 4.343 1.802 6.248 3.5 8.595.6.835.73 1.84-.026 2.466-1.894 1.578-5.263 4.513-7.117 6.156l-.027-.026z"/></g><defs><clipPath id="prefix__clip0_304_27"><path fill="#fff" d="M0 0h300v90.3H0z"/></clipPath></defs></svg>
